svg/music-note.svg

<svg width="16" height="16" viewBox="0 0 16 16" fill="none" xmlns="http://www.w3.org/2000/svg">
<path d="M6 13C6 14.105 4.88 15 3.5 15C2.12 15 1 14.105 1 13C1 11.896 2.12 11 3.5 11C4.88 11 6 11.896 6 13ZM15 11C15 12.105 13.88 13 12.5 13C11.12 13 10 12.105 10 11C10 9.895 11.12 9 12.5 9C13.88 9 15 9.895 15 11Z" fill="white"/>
<path fill-rule="evenodd" clip-rule="evenodd" d="M14 11V2H15V11H14ZM6 3V13H5V3H6Z" fill="white"/>
<path d="M5 2.90499C5 2.65709 5.09208 2.41802 5.25838 2.23416C5.42468 2.05031 5.65334 1.93478 5.9 1.90999L13.9 1.10999C14.0391 1.09602 14.1795 1.11134 14.3123 1.15499C14.445 1.19863 14.5672 1.26961 14.6708 1.36336C14.7745 1.45712 14.8573 1.57155 14.914 1.69929C14.9707 1.82703 15 1.96524 15 2.10499V2.99999L5 3.99999V2.90499Z" fill="white"/>
</svg>

<svg xmlns="http://www.w3.org/2000/svg" width="16" height="16" fill="currentColor" class="bi bi-music-note-beamed" viewBox="0 0 16 16">
  <path d="M6 13c0 1.105-1.12 2-2.5 2S1 14.105 1 13c0-1.104 1.12-2 2.5-2s2.5.896 2.5 2zm9-2c0 1.105-1.12 2-2.5 2s-2.5-.895-2.5-2 1.12-2 2.5-2 2.5.895 2.5 2z"/>
  <path fill-rule="evenodd" d="M14 11V2h1v9h-1zM6 3v10H5V3h1z"/>
  <path d="M5 2.905a1 1 0 0 1 .9-.995l8-.8a1 1 0 0 1 1.1.995V3L5 4V2.905z"/>
</svg>
